X: 7
T: Ballyket Courthouse, The
M: 4/4
L: 1/8
R: reel
K: Amaj
cd |\
e2 fe ecBA | FBBA B/c/B Ac | e2 fe ecBA | FAAG ABcd |
eafe ecBA | FB-BA Bcdf | e2 fe ecBA | FA-AG A2 ||
c/d/e |\
a/b/a ga fece | fbb^a b=afg | a2 ga fece | faag aAce |
abga fece | fb-b^a b2 c/d/e | a/b/a ga f2 ce | fa-ag a2 |]
